<?xml version="1.0" encoding="UTF-8"?>
<map version="1.10" tiledversion="1.11.2" orientation="orthogonal" renderorder="right-down" width="20" height="15" tilewidth="64" tileheight="64" infinite="0" nextlayerid="4" nextobjectid="1">
 <editorsettings>
  <export target="mapa.csv" format="csv"/>
 </editorsettings>
 <tileset firstgid="1" source="../01_Jogo_Plataforma/tiles.tsx"/>
 <layer id="1" name="platforms" width="20" height="15">
  <data encoding="csv">
0,0,0,0,0,0,0,0,0,0,0,0,0,0,0,0,0,0,0,0,
0,0,0,0,0,0,0,0,0,0,0,0,0,0,0,0,0,0,0,0,
0,0,0,0,0,0,0,0,0,0,0,0,0,0,0,0,0,0,0,0,
0,0,0,0,0,0,0,0,0,0,0,184,183,183,185,0,0,0,0,0,
0,0,0,184,183,183,183,185,0,0,0,0,0,0,0,0,0,0,0,0,
0,0,0,0,0,0,0,0,0,0,0,0,0,0,0,0,0,0,0,177,
0,0,0,0,0,0,0,0,0,0,0,0,0,0,0,0,0,0,0,0,
183,185,0,0,0,0,0,0,0,0,0,0,0,0,0,0,0,0,0,0,
0,0,0,0,0,0,0,184,183,183,183,183,185,0,0,306,0,0,0,0,
0,0,0,0,0,0,0,0,0,0,0,0,0,0,0,305,0,0,0,0,
0,0,0,177,0,0,0,0,0,0,0,0,0,0,0,284,286,286,286,286,
0,0,0,0,0,0,0,0,0,0,0,0,0,0,0,281,280,280,280,280,
0,0,0,0,0,0,0,0,0,0,0,0,0,0,0,0,0,0,0,0,
174,174,174,174,176,0,0,0,184,183,183,185,0,0,0,0,0,0,0,0,
171,171,171,171,173,0,0,0,0,0,0,0,0,0,175,174,174,174,174,174
</data>
 </layer>
 <layer id="3" name="obstacles" width="20" height="15">
  <data encoding="csv">
0,0,0,0,0,0,0,0,0,0,0,0,0,0,0,0,0,0,0,0,
0,0,0,0,0,0,0,0,0,0,0,0,0,0,0,0,0,0,0,0,
0,0,0,0,0,0,0,0,0,0,0,0,0,127,0,0,0,0,0,0,
0,0,0,0,0,0,0,0,0,0,0,0,0,0,0,0,0,0,0,0,
0,0,0,0,0,0,0,0,0,0,0,0,0,0,0,0,0,0,0,0,
0,0,0,0,0,0,0,0,0,0,0,0,0,0,0,0,0,0,0,0,
0,0,0,0,0,0,0,0,0,0,0,0,0,0,0,0,0,0,0,0,
0,0,0,0,0,0,0,0,0,0,0,0,0,0,0,0,0,0,0,0,
0,0,0,0,0,0,0,0,0,0,0,0,0,0,0,0,311,311,311,311,
0,0,0,0,0,0,0,0,0,0,0,0,0,0,0,0,310,310,310,310,
0,0,0,0,0,0,0,0,0,0,0,0,0,0,0,0,0,0,0,0,
0,0,0,0,0,0,0,0,0,0,0,0,0,0,0,0,0,0,0,0,
0,0,0,0,0,0,0,0,0,0,0,0,0,0,0,0,0,0,0,0,
0,0,0,0,0,0,0,0,0,0,0,0,0,0,0,0,0,0,0,0,
0,0,0,0,0,312,312,312,312,312,312,312,312,312,0,0,0,0,0,0
</data>
 </layer>
</map>
